package/converter/svg/duotone/circle-h.svg

<svg xmlns="http://www.w3.org/2000/svg" viewBox="0 0 512 512"><!-- Font Awesome Pro 6.0.0-alpha2 by @fontawesome - https://fontawesome.com License - https://fontawesome.com/license (Commercial License) --><defs><style>.fa-secondary{opacity:.4}</style></defs><path d="M256 16C123.451 16 16 123.451 16 256S123.451 496 256 496S496 388.549 496 256S388.549 16 256 16ZM368 360C368 373.25 357.25 384 344 384S320 373.25 320 360V280H192V360C192 373.25 181.25 384 168 384S144 373.25 144 360V152C144 138.75 154.75 128 168 128S192 138.75 192 152V232H320V152C320 138.75 330.75 128 344 128S368 138.75 368 152V360Z" class="fa-secondary"/><path d="M344 128C330.75 128 320 138.75 320 152V232H192V152C192 138.75 181.25 128 168 128S144 138.75 144 152V360C144 373.25 154.75 384 168 384S192 373.25 192 360V280H320V360C320 373.25 330.75 384 344 384S368 373.25 368 360V152C368 138.75 357.25 128 344 128Z" class="fa-primary"/></svg>

<svg xmlns="http://www.w3.org/2000/svg" viewBox="0 0 512 512"><!--! Font Awesome Pro 6.6.0 by @fontawesome - https://fontawesome.com License - https://fontawesome.com/license (Commercial License) Copyright 2024 Fonticons, Inc. --><defs><style>.fa-secondary{opacity:.4}</style></defs><path class="fa-secondary" d="M0 256a256 256 0 1 0 512 0A256 256 0 1 0 0 256zM144 152c0-13.3 10.7-24 24-24s24 10.7 24 24l0 80 128 0 0-80c0-13.3 10.7-24 24-24s24 10.7 24 24l0 104 0 104c0 13.3-10.7 24-24 24s-24-10.7-24-24l0-80-128 0 0 80c0 13.3-10.7 24-24 24s-24-10.7-24-24l0-208z"/><path class="fa-primary" d="M344 128c13.3 0 24 10.7 24 24l0 104 0 104c0 13.3-10.7 24-24 24s-24-10.7-24-24l0-80-128 0 0 80c0 13.3-10.7 24-24 24s-24-10.7-24-24l0-208c0-13.3 10.7-24 24-24s24 10.7 24 24l0 80 128 0 0-80c0-13.3 10.7-24 24-24z"/></svg>
